local/share/icons/dracula-icons-main/scalable/apps/auryo.svg

<?xml version="1.0" encoding="UTF-8"?>
<svg xmlns="http://www.w3.org/2000/svg" xmlns:xlink="http://www.w3.org/1999/xlink" width="64" height="64" viewBox="0 0 64 64">
<path fill-rule="nonzero" fill="rgb(24.705882%, 26.666667%, 30.980392%)" fill-opacity="1" d="M 59 32 C 59 46.910156 46.910156 59 32 59 C 17.089844 59 5 46.910156 5 32 C 5 17.089844 17.089844 5 32 5 C 46.910156 5 59 17.089844 59 32 Z M 59 32 "/>
<path fill-rule="nonzero" fill="rgb(32.941176%, 63.137255%, 91.764706%)" fill-opacity="1" d="M 32 15.042969 C 24.796875 15.042969 18.957031 20.882812 18.957031 28.085938 L 18.957031 34.953125 C 16.613281 35.78125 15.046875 37.992188 15.042969 40.476562 C 15.042969 43.71875 17.671875 46.347656 20.914062 46.347656 C 22.097656 46.347656 23.253906 45.988281 24.230469 45.320312 C 24.359375 45.902344 24.851562 46.347656 25.476562 46.347656 C 26.199219 46.347656 26.78125 45.765625 26.78125 45.042969 L 26.78125 35.910156 C 26.78125 35.1875 26.199219 34.609375 25.476562 34.609375 C 24.851562 34.609375 24.355469 35.050781 24.226562 35.640625 C 23.804688 35.351562 23.347656 35.121094 22.867188 34.953125 L 22.867188 28.085938 C 22.867188 23.042969 26.957031 18.957031 32 18.957031 C 37.042969 18.957031 41.128906 23.042969 41.128906 28.085938 L 41.128906 34.953125 C 38.785156 35.78125 37.21875 37.992188 37.214844 40.476562 C 37.214844 43.71875 39.84375 46.347656 43.085938 46.347656 C 46.328125 46.347656 48.957031 43.71875 48.957031 40.476562 C 48.953125 37.992188 47.382812 35.78125 45.042969 34.953125 L 45.042969 28.085938 C 45.042969 20.882812 39.203125 15.042969 32 15.042969 Z M 20.910156 37.214844 C 22.710938 37.214844 24.171875 38.675781 24.171875 40.476562 C 24.171875 42.277344 22.714844 43.738281 20.910156 43.738281 C 19.109375 43.738281 17.652344 42.277344 17.652344 40.476562 C 17.652344 38.675781 19.109375 37.214844 20.910156 37.214844 Z M 43.085938 37.214844 C 44.886719 37.214844 46.347656 38.675781 46.347656 40.476562 C 46.347656 42.277344 44.886719 43.738281 43.085938 43.738281 C 41.285156 43.738281 39.824219 42.277344 39.824219 40.476562 C 39.824219 38.675781 41.285156 37.214844 43.085938 37.214844 Z M 43.085938 37.214844 "/>
</svg>

<svg width="64" height="64" version="1.1" viewBox="0 0 64 64" xmlns="http://www.w3.org/2000/svg">
 <circle cx="32" cy="32" r="27" fill="#3f444f" stroke-width="1.1739"/>
 <path d="m31.999 15.043c-7.2034 0-13.043 5.8396-13.043 13.043v6.8654c-2.3423 0.8281-3.9094 3.0411-3.9129 5.5254 0 3.2416 2.6278 5.8694 5.8694 5.8694 1.1838 1.17e-4 2.34-0.35776 3.3168-1.0266 0.12988 0.58386 0.62416 1.0266 1.2483 1.0266 0.72258 0 1.3043-0.58172 1.3043-1.3043v-9.1301c0-0.72258-0.58172-1.3043-1.3043-1.3043-0.62601 0-1.1229 0.44516-1.2508 1.0317-0.42082-0.28723-0.87726-0.51846-1.3578-0.68782v-6.8654c0-5.0424 4.0877-9.1301 9.1301-9.1301s9.1301 4.0877 9.1301 9.1301v6.8654c-2.3423 0.8281-3.9113 3.0411-3.9129 5.5254-2e-3 3.2416 2.6278 5.8694 5.8694 5.8694s5.8713-2.6278 5.8694-5.8694c-0.0016-2.4843-1.5706-4.6973-3.9129-5.5254v-6.8654c0-7.2034-5.8396-13.043-13.043-13.043zm-11.087 22.173c1.8008 0 3.2608 1.4599 3.2608 3.2608s-1.4599 3.2608-3.2608 3.2608-3.2608-1.4599-3.2608-3.2608 1.4599-3.2608 3.2608-3.2608zm22.173 0c1.8008 0 3.2608 1.4599 3.2608 3.2608s-1.4599 3.2608-3.2608 3.2608-3.2608-1.4599-3.2608-3.2608 1.4599-3.2608 3.2608-3.2608z" fill="#54a1ea" stroke-width="1.3043" style="paint-order:normal"/>
 <circle cx="15.5" cy="30.5" r="0" fill="#3a3e46" style="paint-order:normal"/>
</svg>
